X:411
T: MUSS ICH MICH GETAEUSCHET WISSEN
N: B0484
O: Europa, Mitteleuropa, Deutschland, Hochwald, Hellertshausen
R: Liebes - Lied, Leid, Klage
M: 3/4
L: 1/16
K: F
 | F3CF2A2d3c | A2F2A4
c3c | B6C2A3G | F4z8
F3CF2A2d3c | A2F2A4
c3c | B6C2A3G | F4z8
G3GG2G2A2=B2 | d4c4
B2A2 | G4B4d3c | A4z8
F3CF2A2d3c | A2F2A4
c3c | B6C2A3G | F4z8

